icons/mobile/24/svg/camera-slash-24.svg

<svg width="24" height="24" viewBox="0 0 24 24" fill="none" xmlns="http://www.w3.org/2000/svg">
<path fill-rule="evenodd" clip-rule="evenodd" d="M1.75579 2.25579C2.0975 1.91408 2.65237 1.91408 2.99407 2.25579L21.2441 20.5058C21.5858 20.8475 21.5858 21.4024 21.2441 21.7441C20.9024 22.0858 20.3475 22.0858 20.0058 21.7441L16.4306 18.1689C15.9071 18.9921 15.042 19.5791 14.0224 19.7099C12.5255 19.9009 10.9982 19.9989 9.48236 19.999C7.98536 19.999 6.46945 19.9028 4.97845 19.7148C3.27969 19.4976 1.99993 18.0467 1.99993 16.3378V8.66009C1.99993 7.33893 2.75772 6.17497 3.87689 5.61517L1.75579 3.49407C1.41408 3.15237 1.41408 2.5975 1.75579 2.25579ZM5.164 7.02532C4.357 7.12832 3.74993 7.83107 3.74993 8.66107V16.3388C3.74993 17.1688 4.37315 17.8744 5.19915 17.9794C8.05305 18.3414 10.9708 18.3365 13.8007 17.9745C14.4286 17.8944 14.9345 17.4509 15.1288 16.8671L5.27337 7.01165C5.2369 7.01618 5.20043 7.02065 5.164 7.02532Z" fill="black"/>
<path d="M7.90716 5.05169C9.93308 4.96271 11.9743 5.0301 13.9872 5.28509C15.393 5.4622 16.5133 6.4888 16.8574 7.80657L17.2841 7.37884C18.0881 6.57296 19.24 6.34131 20.2919 6.77728C21.3468 7.2133 22.0009 8.19296 22.0009 9.33489V15.665C22.0009 16.607 21.5497 17.4353 20.7997 17.9423L19.5009 16.6425C19.5478 16.6295 19.5979 16.6164 19.624 16.6054C19.771 16.5454 20.2509 16.297 20.2509 15.665V9.33489C20.2509 8.70394 19.77 8.45546 19.624 8.39446C19.4758 8.33443 18.9652 8.17346 18.5224 8.61614L16.7099 10.4316C16.4609 10.6826 16.0828 10.757 15.7568 10.622C15.43 10.486 15.2159 10.1672 15.2158 9.81341V8.66107C15.2158 7.83007 14.5925 7.12347 13.7665 7.01946C12.3908 6.84552 10.993 6.75885 9.61029 6.75384L7.90716 5.05169Z" fill="black"/>
</svg>

<!-- This Source Code Form is subject to the terms of the Mozilla Public
   - License, v. 2.0. If a copy of the MPL was not distributed with this
   - file, You can obtain one at http://mozilla.org/MPL/2.0/. -->
<svg xmlns="http://www.w3.org/2000/svg" width="24" height="24" fill="none" viewBox="0 0 24 24">
    <path fill="#000" fill-rule="evenodd" d="M1.756 2.256a.876.876 0 0 1 1.238 0l18.25 18.25a.876.876 0 0 1-1.238 1.238L16.43 18.17a3.36 3.36 0 0 1-2.409 1.54 36 36 0 0 1-4.54.29c-1.497 0-3.013-.096-4.504-.284A3.41 3.41 0 0 1 2 16.338V8.66c0-1.321.758-2.485 1.877-3.045l-2.121-2.12a.876.876 0 0 1 0-1.24m3.408 4.77c-.807.102-1.414.805-1.414 1.635v7.678c0 .83.623 1.535 1.45 1.64a34 34 0 0 0 8.6-.005 1.62 1.62 0 0 0 1.329-1.107L5.273 7.012z" clip-rule="evenodd" />
    <path fill="#000" d="M7.907 5.052a36 36 0 0 1 6.08.233 3.415 3.415 0 0 1 2.87 2.522l.427-.428a2.71 2.71 0 0 1 3.008-.602A2.72 2.72 0 0 1 22 9.335v6.33c0 .942-.451 1.77-1.201 2.277l-1.3-1.3c.048-.012.098-.026.124-.037a1 1 0 0 0 .627-.94v-6.33a1 1 0 0 0-.627-.94.995.995 0 0 0-1.102.221l-1.812 1.816a.874.874 0 0 1-1.494-.619V8.661a1.66 1.66 0 0 0-1.45-1.642 34 34 0 0 0-4.156-.265z" />
</svg>
